!!!SOCIAL_FUNCTION:	songs for success in hunting
!!!PDT:	1956
!!!OTL: The Scaffold is Empty -Duplicatino of b No.214
!!!LANG: Non-Tone
!!!LING_GROUP: Muskogean
!!!REG: Florida
**kern
*staff1
=1-
*clefF4
*k[f#c#]
*M2/4
4A\
4A\
=2
8F#\L
8E\J
4D\
=3
4D\
4r
=4
4E\
4BB/
=5
8D\L
8D\J
4BB/
=6
2BB/
=7
8D/L
8BB/J
4D\
=8
8D\L
8D\J
4D\
=9
4E\
4r
=10
4E\
4BB/
=11
8D\L
8D\J
4BB/
=12
4BB/
4r
=13!|:
8A\L
8A\J
8A\L
8A\J
=14||
*M3/4
4A\
8F#\L
8E\J
4D\
=15||
*M2/4
4E\
4r
=16
4E\
4D\
=17
8D\L
8D\J
4D\
=18
4E\
4r
=19
4E\
4BB/
=20
8D\L
8D\J
4BB/
=21
2BB/
=22
4A\
4A\
=23
8F#\L
8E\J
4D\
=24
4E\
4r
=25
4E\
4BB/
=26
8D\L
8D\J
4BB/
=27
2BB/
=28
8D/L
8BB/J
4D\
=29
8D\L
8D\J
4D\
=30
4E\
4r
=31
4E\
4BB/
=32
8D\L
8D\J
4BB/
=33
4BB/
4r
=34:|!
4BB/
8F#\L
8D\J
=35||
*M3/4
[2F#\
8F#/L]
8AA/J
=36
16AA/LL
16AA/J
8AA/J
8BB/L
8AA/J
4r
==
*-
